X: 2
T: the Lewis Bridal Song - Mairi's Wedding
O: trad. Hebrides Islands
B: BSFC Session Tune Book 2016 p.54
R: march
Z: 2019 John Chambers <jc:trillian.mit.edu>
M: C|
L: 1/4
K: D
"A"[|] f | \
"D"A>A AB | de "D7"f2 | "G"ed "Em"Bd | "A7"fe fa |\
"D"A>A AB | de "D7"f2 | "G"ed "Em"BG | "A7"A2 A |]
"B"[|] z |\
"D"a>a ab | ag f2 | "G"ed "Em"Bd | "A7"fe fa |\
"D"a>a ab | ag f2 | "G"ed "Em"BG | "A7"A2 A |]


